resources/images/SwordIcon.svg

<svg xmlns="http://www.w3.org/2000/svg" width="512" height="512" shape-rendering="geometricPrecision" image-rendering="optimizeQuality" fill-rule="evenodd" xmlns:v="https://vecta.io/nano"><path d="M486.5-.5h17c3.641 1.64121 6.308 4.30788 8 8v17l-6.5 60c-2.279 7.2245-5.612 13.8911-10 20L226.5 373c-6.667 4.667-13.333 4.667-20 0L187 353.5c-3.333-6.333-3.333-12.667 0-19l225-225c2.815-6.703.649-10.7028-6.5-12-2.291.1221-4.291.9554-6 2.5l-223 223c-5.34 3.613-11.007 4.28-17 2-7.803-6.802-15.303-13.969-22.5-21.5-3.698-7.415-3.031-14.415 2-21L407.5 15c7.148-5.27457 15.148-8.60791 24-10 18.516-1.51524 36.849-3.34857 55-5.5z" opacity=".979"/><path d="M18.5 279.5c16.3367-.167 32.6701 0 49 .5 2.1079.36 4.1079 1.027 6 2L226 433.5c1.586 2.17 2.92 4.504 4 7 .667 18.333.667 36.667 0 55-6.43 10.856-14.764 12.522-25 5-1.275-2.217-2.275-4.551-3-7l-1-43-39.5-39.5c-12.412 6.36-24.412 13.694-36 22-3.202 1.483-6.536 1.817-10 1-5.705-9.063-12.372-17.397-20-25-6.2553-4.378-12.422-8.878-18.5-13.5-.6667-2.333-.6667-4.667 0-7 6.4154-11.166 13.0821-22.166 20-33 1.5899-2.15 2.2566-4.483 2-7L59.5 309l-44-1c-9.22703-3.984-12.06036-10.818-8.5-20.5 2.82328-4.312 6.6566-6.979 11.5-8z" opacity=".963"/><path d="M56.5 511.5h-20c-19.3333-5.333-31.66667-17.667-37-37v-20c12.0559-32.525 34.7225-43.359 68-32.5 26.8247 17.455 32.991 40.622 18.5 69.5-2.5402 2.205-4.7068 4.705-6.5 7.5-6.8651 5.764-14.5317 9.93-23 12.5z" opacity=".975"/></svg>

<?xml version="1.0" encoding="UTF-8"?>
<!DOCTYPE svg PUBLIC "-//W3C//DTD SVG 1.1//EN" "http://www.w3.org/Graphics/SVG/1.1/DTD/svg11.dtd">
<svg xmlns="http://www.w3.org/2000/svg" version="1.1" width="512px" height="512px" style="shape-rendering:geometricPrecision; text-rendering:geometricPrecision; image-rendering:optimizeQuality; fill-rule:evenodd; clip-rule:evenodd" xmlns:xlink="http://www.w3.org/1999/xlink">
<g><path style="opacity:0.979" fill="#000000" d="M 486.5,-0.5 C 492.167,-0.5 497.833,-0.5 503.5,-0.5C 507.141,1.14121 509.808,3.80788 511.5,7.5C 511.5,13.1667 511.5,18.8333 511.5,24.5C 509.374,44.3614 507.207,64.3614 505,84.5C 502.721,91.7245 499.388,98.3911 495,104.5C 405.5,194 316,283.5 226.5,373C 219.833,377.667 213.167,377.667 206.5,373C 200,366.5 193.5,360 187,353.5C 183.667,347.167 183.667,340.833 187,334.5C 262,259.5 337,184.5 412,109.5C 414.815,102.797 412.649,98.7972 405.5,97.5C 403.209,97.6221 401.209,98.4554 399.5,100C 325.167,174.333 250.833,248.667 176.5,323C 171.16,326.613 165.493,327.28 159.5,325C 151.697,318.198 144.197,311.031 137,303.5C 133.302,296.085 133.969,289.085 139,282.5C 228.806,193.694 318.306,104.527 407.5,15C 414.648,9.72543 422.648,6.39209 431.5,5C 450.016,3.48476 468.349,1.65143 486.5,-0.5 Z"/></g>
<g><path style="opacity:0.963" fill="#000000" d="M 18.5,279.5 C 34.8367,279.333 51.1701,279.5 67.5,280C 69.6079,280.36 71.6079,281.027 73.5,282C 124.028,332.861 174.861,383.361 226,433.5C 227.586,435.67 228.92,438.004 230,440.5C 230.667,458.833 230.667,477.167 230,495.5C 223.57,506.356 215.236,508.022 205,500.5C 203.725,498.283 202.725,495.949 202,493.5C 201.667,479.167 201.333,464.833 201,450.5C 187.833,437.333 174.667,424.167 161.5,411C 149.088,417.36 137.088,424.694 125.5,433C 122.298,434.483 118.964,434.817 115.5,434C 109.795,424.937 103.128,416.603 95.5,409C 89.2447,404.622 83.078,400.122 77,395.5C 76.3333,393.167 76.3333,390.833 77,388.5C 83.4154,377.334 90.0821,366.334 97,355.5C 98.5899,353.35 99.2566,351.017 99,348.5C 85.8333,335.333 72.6667,322.167 59.5,309C 44.8333,308.667 30.1667,308.333 15.5,308C 6.27297,304.016 3.43964,297.182 7,287.5C 9.82328,283.188 13.6566,280.521 18.5,279.5 Z"/></g>
<g><path style="opacity:0.975" fill="#000000" d="M 56.5,511.5 C 49.8333,511.5 43.1667,511.5 36.5,511.5C 17.1667,506.167 4.83333,493.833 -0.5,474.5C -0.5,467.833 -0.5,461.167 -0.5,454.5C 11.5559,421.975 34.2225,411.141 67.5,422C 94.3247,439.455 100.491,462.622 86,491.5C 83.4598,493.705 81.2932,496.205 79.5,499C 72.6349,504.764 64.9683,508.93 56.5,511.5 Z"/></g>
</svg>
